X: 1
T: Owen Hackett's
M: 6/8
L: 1/8
R: jig
K: Gmaj
dc|:BGG Bcd|ecc c2e|dBG dBG|FGA AFA|
BGG Bcd|ecc c2e|dBG cAF|1AGF Gdc:|2AGF G2A||
|:B2d gdB|c2d gdc|Bdg gdB|dfa afd|
B2d gdB|c2d gdc|dBG cAF|1AGF G2A:|2AGF Gdc||
